Sources/Octicons.swift/Resources/Media.xcassets/workflow-24.imageset/workflow-24.svg

<svg xmlns="http://www.w3.org/2000/svg" viewBox="0 0 24 24" width="24" height="24">  <path fill-rule="evenodd" clip-rule="evenodd" d="M1 3C1 1.89543 1.89543 1 3 1H9.5C10.6046 1 11.5 1.89543 11.5 3V9.5C11.5 10.6046 10.6046 11.5 9.5 11.5H7V15.5625C7 16.3564 7.64359 17 8.4375 17H12.5V14.5C12.5 13.3954 13.3954 12.5 14.5 12.5H21C22.1046 12.5 23 13.3954 23 14.5V21C23 22.1046 22.1046 23 21 23H14.5C13.3954 23 12.5 22.1046 12.5 21V18.5H8.4375C6.81516 18.5 5.5 17.1848 5.5 15.5625V11.5H3C1.89543 11.5 1 10.6046 1 9.5V3ZM3 2.5C2.72386 2.5 2.5 2.72386 2.5 3V9.5C2.5 9.77614 2.72386 10 3 10H9.5C9.77614 10 10 9.77614 10 9.5V3C10 2.72386 9.77614 2.5 9.5 2.5H3ZM14.5 14C14.2239 14 14 14.2239 14 14.5V21C14 21.2761 14.2239 21.5 14.5 21.5H21C21.2761 21.5 21.5 21.2761 21.5 21V14.5C21.5 14.2239 21.2761 14 21 14H14.5Z"></path></svg>

<svg xmlns="http://www.w3.org/2000/svg" width="24" height="24" viewBox="0 0 24 24"><path d="M1 3a2 2 0 0 1 2-2h6.5a2 2 0 0 1 2 2v6.5a2 2 0 0 1-2 2H7v4.063C7 16.355 7.644 17 8.438 17H12.5v-2.5a2 2 0 0 1 2-2H21a2 2 0 0 1 2 2V21a2 2 0 0 1-2 2h-6.5a2 2 0 0 1-2-2v-2.5H8.437A2.939 2.939 0 0 1 5.5 15.562V11.5H3a2 2 0 0 1-2-2Zm2-.5a.5.5 0 0 0-.5.5v6.5a.5.5 0 0 0 .5.5h6.5a.5.5 0 0 0 .5-.5V3a.5.5 0 0 0-.5-.5ZM14.5 14a.5.5 0 0 0-.5.5V21a.5.5 0 0 0 .5.5H21a.5.5 0 0 0 .5-.5v-6.5a.5.5 0 0 0-.5-.5Z"/></svg>
